X: 10565
T: Dorrington Lads, The
R: slip jig
M: 9/8
K: Gmajor
e2|:d2G2B2|d2BcdB|g2d2B2|d2G2B2|d2BcdB|c2A2e2|
d2G2B2|d2BcdB|g2d2B2|c4A2|A2BcdB|c2A2e2:|
|:d4g2|f2e2g2|f2d2g2|f2e2g2|f2d2f2|e2cdec|
d4g2|f2e2g2|f2d2f2|c4A2|A2BcdB|c2A2e2:|

